calendar-collapse-horizontal-outline.svg

<svg fill="currentColor" viewBox="0 0 24 24"><path d="M19 3h-1V1h-2v2H8V1H6v2H5c-1.1 0-2 .9-2 2v14c0 1.1.9 2 2 2h14c1.1 0 2-.9 2-2V5c0-1.1-.9-2-2-2m0 2v2H5V5zM5 19V9h14v10zm11-8-3 3 3 3v-2h2v-2h-2zm-8 2H6v2h2v2l3-3-3-3z"/></svg>

<svg  viewBox="0 0 24 24" fill="currentColor"><path  d="M19 3H18V1H16V3H8V1H6V3H5C3.9 3 3 3.9 3 5V19C3 20.1 3.9 21 5 21H19C20.1 21 21 20.1 21 19V5C21 3.9 20.1 3 19 3M19 5V7H5V5H19M5 19V9H19V19H5M16 11L13 14L16 17V15H18V13H16V11M8 13H6V15H8V17L11 14L8 11V13Z"/></svg>
